X:174
M:6/8
L:1/8
K:G
|:g2d gdB|g2B a2B|Bcd E2A|FDF G3::BdB (c2e)|(A2c) (B2d)|G2B AcA|FDF G3:|

